src/status/22/indicator-notification-close-deselect.svg

<svg width="22" height="22" viewBox="0 0 22 22" xmlns="http://www.w3.org/2000/svg">
 <path d="m3.398438 0.648438c-0.730469 0-1.429688 0.289062-1.945313 0.804687-1.074219 1.074219-1.074219 2.816406 0 3.886719l5.65625 5.660156-5.65625 5.660156c-1.074219 1.070313-1.074219 2.8125 0 3.886719s2.8125 1.074219 3.886719 0l5.660156-5.660156 5.660156 5.660156c1.070313 1.074219 2.8125 1.074219 3.886719 0s1.074219-2.816406 0-3.886719l-5.660156-5.660156 5.664062-5.660156c1.074219-1.070313 1.074219-2.8125 0-3.886719-0.515625-0.515625-1.21875-0.804687-1.949219-0.804687-0.726562 0-1.425781 0.289062-1.941406 0.804687l-5.660156 5.65625-5.660156-5.65625c-0.515625-0.515625-1.214844-0.804687-1.941406-0.804687zm0 1.71875c0.273437 0 0.535156 0.105468 0.726562 0.300781l6.875 6.875 6.875-6.875c0.191406-0.195313 0.453125-0.300781 0.726562-0.300781 0.273438 0 0.539063 0.105468 0.730469 0.300781 0.402344 0.402343 0.402344 1.054687 0 1.457031l-6.875 6.875 6.875 6.875c0.402344 0.402344 0.402344 1.054688 0 1.457031-0.402343 0.402344-1.054687 0.402344-1.457031 0l-6.875-6.875-6.875 6.875c-0.402344 0.402344-1.054688 0.402344-1.457031 0-0.402344-0.402343-0.402344-1.054687 0-1.457031l6.875-6.875-6.875-6.875c-0.402344-0.402344-0.402344-1.054688 0-1.457031 0.191406-0.195313 0.457031-0.300781 0.730469-0.300781z" fill="rgb(18.039216%, 20.392157%, 25.098041%)"/>
</svg>

<svg xmlns="http://www.w3.org/2000/svg" xmlns:xlink="http://www.w3.org/1999/xlink" width="22" height="22" viewBox="0 0 22 22">
<path fill-rule="nonzero" fill="rgb(18.039216%, 20.392157%, 25.098041%)" fill-opacity="1" d="M 3.398438 0.648438 C 2.667969 0.648438 1.96875 0.9375 1.453125 1.453125 C 0.378906 2.527344 0.378906 4.269531 1.453125 5.339844 L 7.109375 11 L 1.453125 16.660156 C 0.378906 17.730469 0.378906 19.472656 1.453125 20.546875 C 2.527344 21.621094 4.265625 21.621094 5.339844 20.546875 L 11 14.886719 L 16.660156 20.546875 C 17.730469 21.621094 19.472656 21.621094 20.546875 20.546875 C 21.621094 19.472656 21.621094 17.730469 20.546875 16.660156 L 14.886719 11 L 20.550781 5.339844 C 21.625 4.269531 21.625 2.527344 20.550781 1.453125 C 20.035156 0.9375 19.332031 0.648438 18.601562 0.648438 C 17.875 0.648438 17.175781 0.9375 16.660156 1.453125 L 11 7.109375 L 5.339844 1.453125 C 4.824219 0.9375 4.125 0.648438 3.398438 0.648438 Z M 3.398438 2.367188 C 3.671875 2.367188 3.933594 2.472656 4.125 2.667969 L 11 9.542969 L 17.875 2.667969 C 18.066406 2.472656 18.328125 2.367188 18.601562 2.367188 C 18.875 2.367188 19.140625 2.472656 19.332031 2.667969 C 19.734375 3.070312 19.734375 3.722656 19.332031 4.125 L 12.457031 11 L 19.332031 17.875 C 19.734375 18.277344 19.734375 18.929688 19.332031 19.332031 C 18.929688 19.734375 18.277344 19.734375 17.875 19.332031 L 11 12.457031 L 4.125 19.332031 C 3.722656 19.734375 3.070312 19.734375 2.667969 19.332031 C 2.265625 18.929688 2.265625 18.277344 2.667969 17.875 L 9.542969 11 L 2.667969 4.125 C 2.265625 3.722656 2.265625 3.070312 2.667969 2.667969 C 2.859375 2.472656 3.125 2.367188 3.398438 2.367188 Z M 3.398438 2.367188 "/>
</svg>
